actions/22x22-light/object-order-lower.svg

<svg xmlns="http://www.w3.org/2000/svg" viewBox="0 0 22 22">
 <defs id="defs3051">
   <style type="text/css" id="current-color-scheme">
     .ColorScheme-Text {
       color:#4d4d4d;
     }
     </style>
 </defs>
   <path
      style="fill:currentColor;fill-opacity:1;stroke:none"
      d="m11.87891 4.44531c-.2814 0-.50782.22642-.50782.50781v.61328c0 .2814.22642.50782.50782.50782h8.61328c.28139 0 .50781-.22642.50781-.50782v-.61328c0-.28139-.22642-.50781-.50781-.50781zm-2.2168.32617c-.1593.00058-.31833.0616-.43945.1836l-3.36914 3.39453-3.39454-3.3711c-.24389-.24215-.6387-.24-.88086.004-.24236.24389-.24022.63861.004.88086l3.83594 3.80859c.12195.12106.28013.18027.43945.17969.15925-.00058.31832-.0616.43945-.18359l3.8086-3.83594c.24225-.24401.24205-.63871-.002-.88086-.12196-.12108-.28211-.18026-.44141-.17969zm2.2168 3.59961c-.2814 0-.50782.22642-.50782.50781v.61329c0 .28139.22642.50781.50782.50781h8.61328c.28139 0 .50781-.22642.50781-.50781v-.61329c0-.28139-.22642-.50781-.50781-.50781zm-10.38477 3.85156c-.27408 0-.49414.22006-.49414.49414v.64063c0 .27408.22006.49414.49414.49414h19.01172c.27408 0 .49414-.22006.49414-.49414v-.64063c0-.27408-.22006-.49414-.49414-.49414h-19.01172zm10.38477 3.70313c-.2814 0-.50782.22641-.50782.5078v.61329c0 .28139.22642.50782.50782.50782h8.61328c.28139 0 .50781-.22643.50781-.50782v-.61329c0-.28139-.22642-.5078-.50781-.5078z"
      class="ColorScheme-Text" />
</svg>

<svg xmlns="http://www.w3.org/2000/svg" viewBox="0 0 22 22">
  <defs id="defs3051">
    <style type="text/css" id="current-color-scheme">
      .ColorScheme-Text {
        color:#4d4d4d
      }
      </style>
  </defs>
 <path 
     style="fill:currentColor;fill-opacity:1;stroke:none"      
	 class="ColorScheme-Text"
        d="m 11.87891,4.44531 c -0.2814,0 -0.50782,0.22642 -0.50782,0.50781 l 0,0.61328 c 0,0.2814 0.22642,0.50782 0.50782,0.50782 l 8.61328,0 C 20.77358,6.07422 21,5.8478 21,5.5664 L 21,4.95312 C 21,4.67173 20.77358,4.44531 20.49219,4.44531 l -8.61328,0 z m -2.2168,0.32617 c -0.1593,5.8e-4 -0.31833,0.0616 -0.43945,0.1836 L 5.85352,8.34961 2.45898,4.97851 C 2.21509,4.73636 1.82028,4.73851 1.57812,4.98251 1.33576,5.2264 1.3379,5.62112 1.58212,5.86337 L 5.41806,9.67196 C 5.54001,9.79302 5.69819,9.85223 5.85751,9.85165 6.01676,9.85107 6.17583,9.79005 6.29696,9.66806 l 3.8086,-3.83594 C 10.34781,5.58811 10.34761,5.19341 10.10356,4.95126 9.9816,4.83018 9.82145,4.771 9.66215,4.77157 Z m 2.2168,3.59961 c -0.2814,0 -0.50782,0.22642 -0.50782,0.50781 l 0,0.61329 C 11.37109,9.77358 11.59751,10 11.87891,10 l 8.61328,0 C 20.77358,10 21,9.77358 21,9.49219 L 21,8.8789 C 21,8.59751 20.77358,8.37109 20.49219,8.37109 l -8.61328,0 z M 1.49414,12.22265 C 1.22006,12.22265 1,12.44271 1,12.71679 l 0,0.64063 c 0,0.27408 0.22006,0.49414 0.49414,0.49414 l 19.01172,0 C 20.77994,13.85156 21,13.6315 21,13.35742 l 0,-0.64063 c 0,-0.27408 -0.22006,-0.49414 -0.49414,-0.49414 l -19.01172,0 z m 10.38477,3.70313 c -0.2814,0 -0.50782,0.22641 -0.50782,0.5078 l 0,0.61329 c 0,0.28139 0.22642,0.50782 0.50782,0.50782 l 8.61328,0 C 20.77358,17.55469 21,17.32826 21,17.04687 l 0,-0.61329 c 0,-0.28139 -0.22642,-0.5078 -0.50781,-0.5078 l -8.61328,0 z"
     />
</svg>
